images/ce-pool-print.svg

<svg width="245" height="245" viewBox="0 0 245 245" fill="none" xmlns="http://www.w3.org/2000/svg">
<path d="M244.547 122.073C244.547 54.6865 189.919 0.058792 122.532 0.058792C55.1455 0.0587921 0.517715 54.6865 0.517715 122.073C0.517715 189.46 55.1455 244.088 122.532 244.088C189.919 244.088 244.547 189.46 244.547 122.073Z" fill="#C7DDF3"/>
<g style="mix-blend-mode:multiply" opacity="0.5">
<g style="mix-blend-mode:multiply" opacity="0.5">
<path d="M117.468 103.169C110.077 107.019 97.7859 115 98.716 132.232C99.6461 149.464 81.6139 134.002 81.6139 134.002L86.2845 98.528L120.128 80.6159L152.262 92.3373L154.473 106.819C154.473 106.819 130.57 96.3278 117.468 103.169Z" fill="#CFCFCE"/>
</g>
</g>
<g style="mix-blend-mode:multiply" opacity="0.5">
<g style="mix-blend-mode:multiply" opacity="0.5">
<path d="M179.676 85.5173C181.776 90.9379 200.478 119.671 185.176 158.656C170.445 196.23 86.7848 215.393 62.1619 152.405C42.7796 102.819 129.61 161.566 129.61 161.566L167.954 135.273L179.676 85.5173Z" fill="#CFCFCE"/>
</g>
</g>
<path d="M55.9509 114.28C58.9512 92.0871 78.6136 58.0531 110.207 55.9329C141.801 53.8126 181.596 64.1338 189.067 113.64C196.538 163.146 158.773 183.458 127.059 187.098C95.3455 190.739 75.9332 170.166 66.3821 157.665C66.3821 157.665 52.9905 136.462 55.9509 114.28ZM98.3259 133.282C103.136 140.693 108.597 147.004 115.968 147.984C123.339 148.964 149.812 143.843 149.632 126.151C149.452 108.459 131.93 90.577 115.628 93.7574C99.326 96.9377 88.9748 118.88 98.3259 133.282V133.282Z" fill="#FEF385"/>
<g style="mix-blend-mode:multiply">
<g style="mix-blend-mode:multiply">
<path d="M149.392 122.881C149.392 122.881 156.843 113.2 155.392 104.018C153.942 94.8373 148.182 88.0165 138.98 85.8963C129.779 83.776 116.778 70.5444 116.778 70.5444L109.627 70.3044L109.447 75.555L123.939 86.8764L143.501 96.8776L147.811 116.38C148.506 118.502 149.035 120.676 149.392 122.881Z" fill="#CFCFCE"/>
</g>
</g>
<g style="mix-blend-mode:multiply">
<g style="mix-blend-mode:multiply">
<path d="M94.5153 60.3237L95.3154 59.4636C100.905 57.0784 106.911 55.8241 112.987 55.7732C122.749 55.7732 127.099 60.4137 125.159 64.4542C123.219 68.4947 108.387 69.4548 108.387 69.4548L100.286 72.8752L94.2853 66.5144L94.5153 60.3237Z" fill="#CFCFCE"/>
</g>
</g>
<g style="mix-blend-mode:multiply">
<g style="mix-blend-mode:multiply">
<path d="M146.891 135.222C146.891 135.222 151.802 136.223 159.413 144.403C167.024 152.584 166.924 157.805 169.684 159.895C171.798 161.39 174.06 162.663 176.435 163.696C175.801 164.542 175.026 165.273 174.144 165.856C172.734 166.776 165.253 164.106 165.253 164.106L152.392 152.404L142.291 141.483L143.531 138.693C144.248 138.174 144.918 137.591 145.531 136.953C146.027 136.411 146.482 135.832 146.891 135.222V135.222Z" fill="#CFCFCE"/>
</g>
</g>
<g style="mix-blend-mode:multiply">
<g style="mix-blend-mode:multiply">
<path d="M99.2764 96.948C99.2764 96.948 89.5253 111.42 89.5753 116.4C89.798 122.267 91.1389 128.038 93.5258 133.402C95.716 137.743 98.5263 136.743 99.7965 142.173C101.067 147.604 96.046 145.684 96.046 145.684L88.0451 138.103L82.3844 120.951L82.8044 108.289L87.805 90.3972L99.2764 96.948Z" fill="#CFCFCE"/>
</g>
</g>
<path d="M75.4638 63.0535C74.4455 63.3493 73.5353 63.9353 72.8444 64.7398C72.1536 65.5444 71.7119 66.5327 71.5734 67.584C70.9233 71.4045 71.2033 72.4546 73.1836 75.2149C75.1638 77.9753 77.7341 78.8954 77.4441 81.3757C77.154 83.856 76.954 86.4463 79.0943 87.6564C81.2346 88.8666 81.1745 90.5168 82.0947 91.6569C83.0148 92.797 85.275 92.757 85.275 92.757L92.8359 90.2067L104.387 75.925C104.387 75.925 103.547 70.3044 102.697 68.7742C101.847 67.244 101.537 63.9236 99.3767 63.3335C97.2164 62.7435 95.2062 60.4932 93.796 59.5131C92.3858 58.533 92.6859 56.8728 90.1956 56.8728C87.7053 56.8728 87.4553 58.1029 86.4052 58.2929C85.355 58.483 81.9146 56.2927 79.4043 58.0529C76.894 59.8131 76.3139 59.133 75.4638 63.0535Z" fill="black"/>
<path d="M88.9247 141.012C90.2249 143.522 90.3449 145.213 90.925 147.203C91.505 149.193 93.2352 149.453 94.7954 149.613C96.1146 149.859 97.4635 149.903 98.7959 149.743C100.146 149.483 101.876 147.673 101.876 147.673C101.876 147.673 102.876 143.302 101.546 141.882C100.216 140.462 97.0758 140.562 95.6556 140.302C94.2354 140.042 92.4352 138.222 91.9451 137.482C91.4551 136.742 89.7049 126.82 88.1647 123.14C86.6245 119.459 85.7244 118.699 85.9744 117.459C86.2245 116.219 89.8048 105.348 90.855 101.857C91.9051 98.367 92.0251 97.8569 93.8553 97.5969C95.6855 97.3369 100.026 96.9768 100.026 96.9768L116.838 98.9771L125.259 92.2062L117.038 77.7145L114.408 74.2041C114.408 74.2041 112.038 71.9438 112.158 71.4338C112.278 70.9237 122.049 70.4337 123.339 69.1135C124.629 67.7934 126.549 66.4132 126.169 65.2631C125.789 64.1129 125.259 61.2626 120.118 59.8724C114.978 58.4822 101.916 61.2326 99.756 60.7425C97.5958 60.2525 93.3153 57.9822 90.805 58.6023C90.1231 58.7329 89.5057 59.0908 89.0534 59.6176C88.6011 60.1443 88.3407 60.8088 88.3147 61.5026C88.3147 61.5026 92.5252 59.6724 93.0953 61.2426C93.6653 62.8128 89.5949 63.6229 89.5949 63.6229C90.9348 64.6254 92.5358 65.2193 94.2054 65.3331C96.7957 65.4131 98.2059 64.0129 100.566 64.3329L109.357 65.3331C109.357 65.3331 103.466 65.5431 102.356 69.6636C101.246 73.7841 99.106 74.9442 97.4458 74.7842C95.7856 74.6242 94.0354 71.2438 94.0354 71.2438C94.0354 71.2438 93.0353 67.5833 92.0352 66.4032C89.6349 63.6329 85.6344 60.9025 82.934 62.4027C81.1203 63.3911 79.01 63.6895 76.9933 63.2428C77.1968 64.6573 77.146 66.0967 76.8433 67.4933C76.552 68.8914 76.3316 70.3034 76.1832 71.7238C76.1832 71.7238 79.3937 72.1439 80.4638 74.0441C81.5339 75.9443 80.6038 77.0444 81.4039 77.8545C81.744 78.2822 82.2097 78.5923 82.7354 78.7413C83.2611 78.8902 83.8204 78.8704 84.3342 78.6846C85.1743 78.1946 85.0143 77.6845 85.9344 78.1746C86.8545 78.6646 89.2148 79.1747 89.6048 80.0648C89.9949 80.9549 90.955 84.2553 90.955 84.2553C90.955 84.2553 89.2348 87.9357 86.9545 88.7958C84.6743 89.6559 84.1742 91.3961 83.4541 94.2765C82.1948 100.082 81.2997 105.961 80.7738 111.879C80.5038 116.749 79.4937 119.099 81.7739 126.13C84.0542 133.161 86.6845 136.682 88.9247 141.012Z" fill="#752C24"/>
<path d="M90.9751 84.2165C93.5537 84.8546 95.841 86.3454 97.4658 88.447C100.068 91.8169 103.752 94.1869 107.897 95.1578C111.467 95.8379 116.378 93.7876 116.378 93.7876C116.378 93.7876 115.378 89.1871 110.237 83.0664C105.097 76.9456 101.746 72.4051 101.746 72.4051L102.386 69.6648C102.386 69.6648 105.677 74.7554 108.657 76.5156C111.637 78.2758 116.038 79.2459 116.228 77.8757C116.418 76.5056 114.468 74.2153 114.468 74.2153C116.644 76.0252 118.687 77.9906 120.579 80.096C123.649 83.5164 125.499 86.0967 130.41 88.167C135.32 90.2372 141.841 93.6676 141.841 93.6676L134.63 116.88L123.899 112.95C122.21 109.859 119.957 107.112 117.258 104.849C112.678 100.958 109.627 101.409 106.057 100.458C103.792 99.8085 101.728 98.5976 100.056 96.938C100.056 96.938 96.9458 90.9373 94.6555 89.0071C93.2195 87.8459 91.6184 86.9055 89.9049 86.2167L90.9751 84.2165Z" fill="#F05D77"/>
<path d="M123.899 112.99C123.899 112.99 116.278 125.881 113.698 132.712C111.118 139.543 112.538 142.493 114.548 144.504C116.558 146.514 125.999 149.314 134.55 153.615C143.101 157.915 147.392 159.985 152.733 164.886C158.073 169.787 160.503 172.617 161.994 173.497C163.484 174.377 164.244 172.327 162.934 170.067C161.624 167.806 156.873 161.146 156.873 161.146L138.281 145.984C138.281 145.984 127.64 139.683 127.179 137.733C126.719 135.783 131.9 131.402 133.36 128.672C134.82 125.941 134.62 115.01 134.62 115.01C134.62 115.01 127.39 112.42 123.899 112.99Z" fill="#5B1F18"/>
<path d="M134.62 115.01C134.27 113.06 134.62 101.728 137.841 97.4078C141.061 93.0873 141.841 93.6673 141.841 93.6673C141.841 93.6673 151.653 98.1479 150.202 108.479C148.752 118.81 143.051 135.882 144.392 138.723C145.732 141.563 153.823 142.213 159.393 149.594C164.964 156.975 165.394 161.005 168.494 162.906C171.595 164.806 175.945 163.436 176.395 166.636C176.845 169.836 176.065 172.427 177.546 177.737C179.026 183.048 176.805 187.258 174.455 187.318C172.105 187.378 173.005 185.318 172.025 181.568C171.045 177.817 169.705 172.217 164.194 167.326C158.683 162.435 145.192 151.614 141.011 149.124C136.831 146.634 133.01 144.123 132.71 140.953C132.41 137.783 134.62 115.01 134.62 115.01Z" fill="#752C24"/>
<path d="M107.144 146.007C107.284 144.002 105.773 142.263 103.768 142.122C101.763 141.982 100.024 143.494 99.8836 145.499C99.7433 147.503 101.255 149.242 103.26 149.383C105.265 149.523 107.004 148.012 107.144 146.007Z" fill="#F9E6F0"/>
<path d="M86.8653 70.3852C86.9801 68.7451 85.7435 67.3224 84.1034 67.2076C82.4633 67.0928 81.0406 68.3293 80.9258 69.9694C80.811 71.6096 82.0475 73.0322 83.6876 73.1471C85.3278 73.2619 86.7504 72.0253 86.8653 70.3852Z" fill="#F9E6F0"/>
<path d="M81.0738 72.6548C82.2336 72.6548 83.1738 71.7146 83.1738 70.5548C83.1738 69.395 82.2336 68.4548 81.0738 68.4548C79.914 68.4548 78.9738 69.395 78.9738 70.5548C78.9738 71.7146 79.914 72.6548 81.0738 72.6548Z" fill="black"/>
<path d="M92.166 65.0532C92.2808 63.413 91.0443 61.9904 89.4042 61.8756C87.764 61.7607 86.3414 62.9973 86.2266 64.6374C86.1118 66.2776 87.3483 67.7002 88.9884 67.815C90.6286 67.9298 92.0512 66.6933 92.166 65.0532Z" fill="#F9E6F0"/>
<path d="M86.3643 67.3443C87.5241 67.3443 88.4643 66.4041 88.4643 65.2443C88.4643 64.0845 87.5241 63.1443 86.3643 63.1443C85.2045 63.1443 84.2643 64.0845 84.2643 65.2443C84.2643 66.4041 85.2045 67.3443 86.3643 67.3443Z" fill="black"/>
<path d="M83.2351 69.0142L84.9751 67.1942L84.2152 66.6042L82.3551 68.4942L83.2351 69.0142Z" fill="#F9E6F0"/>
<path d="M94.0661 71.2448C94.0661 71.2448 93.5061 75.6954 91.9159 76.7755C90.3257 77.8556 85.9152 78.1357 85.9152 78.1357L89.5856 80.0259C89.5856 80.0259 94.3961 81.8461 96.0063 80.2359C97.6165 78.6257 97.4365 74.7853 97.4365 74.7853C97.4365 74.7853 94.6362 72.875 94.0661 71.2448Z" fill="#5B1F18"/>
<path d="M211.901 80.4889C211.501 80.7091 211.035 80.7765 210.59 80.6785C210.144 80.5805 209.749 80.3238 209.479 79.9562C205.65 74.6574 198.276 68.7394 189.748 64.1239C180.68 59.2136 171.304 56.3264 164.023 56.1883C163.768 56.2 163.513 56.1592 163.274 56.0683C163.035 55.9775 162.817 55.8386 162.634 55.6603C162.45 55.4819 162.306 55.2678 162.208 55.0313C162.111 54.7948 162.063 54.5408 162.068 54.2852C162.073 54.0295 162.13 53.7775 162.236 53.5448C162.342 53.3121 162.495 53.1036 162.684 52.9322C162.874 52.7607 163.097 52.6301 163.339 52.5482C163.582 52.4664 163.838 52.4351 164.093 52.4563C181.297 52.7767 204.243 66.3234 212.506 77.7637C212.794 78.1661 212.911 78.6657 212.833 79.1543C212.755 79.6428 212.488 80.0808 212.089 80.3735L211.901 80.4889Z" fill="#DBEFED"/>
<path d="M95.8874 224.432C95.4878 224.652 95.0217 224.719 94.5761 224.621C94.1304 224.523 93.7356 224.267 93.4653 223.899C89.6362 218.6 82.2621 212.682 73.7347 208.067C64.6665 203.156 55.2903 200.269 48.0098 200.131C47.7544 200.143 47.4992 200.102 47.2602 200.011C47.0211 199.92 46.8032 199.782 46.62 199.603C46.4367 199.425 46.292 199.211 46.1947 198.974C46.0975 198.738 46.0498 198.484 46.0546 198.228C46.0593 197.972 46.1165 197.72 46.2225 197.488C46.3285 197.255 46.4811 197.046 46.6708 196.875C46.8606 196.704 47.0836 196.573 47.3258 196.491C47.5681 196.409 47.8246 196.378 48.0794 196.399C65.2836 196.72 88.2298 210.266 96.4923 221.707C96.7801 222.109 96.8977 222.609 96.8196 223.097C96.7415 223.586 96.4739 224.024 96.075 224.316L95.8874 224.432Z" fill="#DBEFED"/>
<path d="M182.446 42.6146C182.039 42.8422 181.56 42.9073 181.106 42.7969C166.857 39.432 142.546 31.6735 139.932 17.5935C139.868 17.3454 139.856 17.0868 139.896 16.8337C139.937 16.5807 140.028 16.3386 140.166 16.1225C140.304 15.9064 140.484 15.7209 140.697 15.5775C140.909 15.4341 141.149 15.3359 141.401 15.2889C141.652 15.2419 141.911 15.2472 142.161 15.3044C142.411 15.3616 142.646 15.4695 142.852 15.6215C143.059 15.7734 143.232 15.9661 143.36 16.1876C143.489 16.4092 143.571 16.6548 143.601 16.9093C145.92 29.3454 171.205 36.6103 181.968 39.152C182.334 39.2396 182.666 39.4359 182.919 39.7152C183.172 39.9944 183.334 40.3436 183.386 40.7169C183.437 41.0903 183.374 41.4704 183.206 41.8074C183.037 42.1445 182.771 42.4228 182.441 42.6058L182.446 42.6146Z" fill="#DBEFED"/>
<path d="M66.4315 186.557C66.0239 186.785 65.5453 186.85 65.0917 186.74C50.8425 183.375 26.5309 175.616 23.9177 161.536C23.8538 161.288 23.8416 161.03 23.8818 160.777C23.9221 160.524 24.0139 160.281 24.1515 160.065C24.2892 159.849 24.4699 159.664 24.6822 159.52C24.8945 159.377 25.134 159.279 25.3859 159.232C25.6378 159.185 25.8967 159.19 26.1464 159.247C26.3962 159.305 26.6315 159.412 26.8379 159.564C27.0442 159.716 27.217 159.909 27.3458 160.131C27.4745 160.352 27.5564 160.598 27.5863 160.852C29.9058 173.288 55.1903 180.553 65.953 183.095C66.3195 183.183 66.651 183.379 66.9041 183.658C67.1571 183.937 67.3199 184.286 67.3711 184.66C67.4223 185.033 67.3595 185.413 67.191 185.75C67.0225 186.087 66.756 186.366 66.4266 186.549L66.4315 186.557Z" fill="#DBEFED"/>
<path d="M211.901 80.4889C211.501 80.7091 211.035 80.7765 210.59 80.6785C210.144 80.5805 209.749 80.3238 209.479 79.9562C205.65 74.6574 198.276 68.7394 189.748 64.1239C180.68 59.2136 171.304 56.3264 164.023 56.1883C163.768 56.2 163.513 56.1592 163.274 56.0683C163.035 55.9775 162.817 55.8386 162.634 55.6603C162.45 55.4819 162.306 55.2678 162.208 55.0313C162.111 54.7948 162.063 54.5408 162.068 54.2852C162.073 54.0295 162.13 53.7775 162.236 53.5448C162.342 53.3121 162.495 53.1036 162.684 52.9322C162.874 52.7607 163.097 52.6301 163.339 52.5482C163.582 52.4664 163.838 52.4351 164.093 52.4563C181.297 52.7767 204.243 66.3234 212.506 77.7637C212.794 78.1661 212.911 78.6657 212.833 79.1543C212.755 79.6428 212.488 80.0808 212.089 80.3735L211.901 80.4889Z" fill="white"/>
<path d="M95.8874 224.432C95.4878 224.652 95.0217 224.719 94.5761 224.621C94.1304 224.523 93.7356 224.267 93.4653 223.899C89.6362 218.6 82.2621 212.682 73.7347 208.067C64.6665 203.156 55.2903 200.269 48.0098 200.131C47.7544 200.143 47.4992 200.102 47.2602 200.011C47.0211 199.92 46.8032 199.782 46.62 199.603C46.4367 199.425 46.292 199.211 46.1947 198.974C46.0975 198.738 46.0498 198.484 46.0546 198.228C46.0593 197.972 46.1165 197.72 46.2225 197.488C46.3285 197.255 46.4811 197.046 46.6708 196.875C46.8606 196.704 47.0836 196.573 47.3258 196.491C47.5681 196.409 47.8246 196.378 48.0794 196.399C65.2836 196.72 88.2298 210.266 96.4923 221.707C96.7801 222.109 96.8977 222.609 96.8196 223.097C96.7415 223.586 96.4739 224.024 96.075 224.316L95.8874 224.432Z" fill="white"/>
<path d="M182.446 42.6146C182.039 42.8422 181.56 42.9073 181.106 42.7969C166.857 39.432 142.546 31.6735 139.932 17.5935C139.868 17.3454 139.856 17.0868 139.896 16.8337C139.937 16.5807 140.028 16.3386 140.166 16.1225C140.304 15.9064 140.484 15.7209 140.697 15.5775C140.909 15.4341 141.149 15.3359 141.401 15.2889C141.652 15.2419 141.911 15.2472 142.161 15.3044C142.411 15.3616 142.646 15.4695 142.852 15.6215C143.059 15.7734 143.232 15.9661 143.36 16.1876C143.489 16.4092 143.571 16.6548 143.601 16.9093C145.92 29.3454 171.205 36.6103 181.968 39.152C182.334 39.2396 182.666 39.4359 182.919 39.7152C183.172 39.9944 183.334 40.3436 183.386 40.7169C183.437 41.0903 183.374 41.4704 183.206 41.8074C183.037 42.1445 182.771 42.4228 182.441 42.6058L182.446 42.6146Z" fill="white"/>
<path d="M66.4315 186.557C66.0239 186.785 65.5453 186.85 65.0917 186.74C50.8425 183.375 26.5309 175.616 23.9177 161.536C23.8538 161.288 23.8416 161.03 23.8818 160.777C23.9221 160.524 24.0139 160.281 24.1515 160.065C24.2892 159.849 24.4699 159.664 24.6822 159.52C24.8945 159.377 25.134 159.279 25.3859 159.232C25.6378 159.185 25.8967 159.19 26.1464 159.247C26.3962 159.305 26.6315 159.412 26.8379 159.564C27.0442 159.716 27.217 159.909 27.3458 160.131C27.4745 160.352 27.5564 160.598 27.5863 160.852C29.9058 173.288 55.1903 180.553 65.953 183.095C66.3195 183.183 66.651 183.379 66.9041 183.658C67.1571 183.937 67.3199 184.286 67.3711 184.66C67.4223 185.033 67.3595 185.413 67.191 185.75C67.0225 186.087 66.756 186.366 66.4266 186.549L66.4315 186.557Z" fill="white"/>
</svg>

<svg width="245" height="245" fill="none" xmlns="http://www.w3.org/2000/svg"><path d="M244.547 122.073C244.547 54.687 189.919.059 122.532.059 55.146.059.518 54.687.518 122.073c0 67.387 54.627 122.015 122.014 122.015s122.015-54.628 122.015-122.015Z" fill="#C7DDF3"/><path d="M117.468 103.169c-7.391 3.85-19.682 11.831-18.752 29.063.93 17.232-17.102 1.77-17.102 1.77l4.67-35.474 33.844-17.912 32.134 11.721 2.211 14.482s-23.903-10.491-37.005-3.65Z" fill="#CFCFCE" style="mix-blend-mode:multiply" opacity=".5"/><path d="M179.676 85.517c2.1 5.42 20.802 34.154 5.5 73.139-14.731 37.574-98.391 56.737-123.014-6.251-19.382-49.586 67.448 9.161 67.448 9.161l38.344-26.293 11.722-49.756Z" fill="#CFCFCE" style="mix-blend-mode:multiply" opacity=".5"/><path d="M55.95 114.28c3.001-22.193 22.664-56.227 54.257-58.347 31.594-2.12 71.389 8.2 78.86 57.707 7.471 49.506-30.294 69.818-62.008 73.458-31.713 3.641-51.126-16.932-60.677-29.433 0 0-13.392-21.203-10.431-43.385Zm42.376 19.002c4.81 7.411 10.271 13.722 17.642 14.702 7.371.98 33.844-4.141 33.664-21.833-.18-17.692-17.702-35.574-34.004-32.394-16.302 3.18-26.653 25.123-17.302 39.525Z" fill="#FEF385"/><path d="M149.392 122.881s7.451-9.681 6-18.863c-1.45-9.18-7.21-16.002-16.412-18.122-9.201-2.12-22.202-15.352-22.202-15.352l-7.151-.24-.18 5.251 14.492 11.321 19.562 10.002 4.31 19.502a42.936 42.936 0 0 1 1.581 6.501Z" fill="#CFCFCE" style="mix-blend-mode:multiply"/><path d="m94.515 60.324.8-.86a46.007 46.007 0 0 1 17.672-3.69c9.762 0 14.112 4.64 12.172 8.68-1.94 4.04-16.772 5-16.772 5l-8.101 3.421-6-6.36.23-6.191ZM146.891 135.222s4.911 1.001 12.522 9.181c7.611 8.181 7.511 13.402 10.271 15.492a37.806 37.806 0 0 0 6.751 3.801 9.21 9.21 0 0 1-2.291 2.16c-1.41.92-8.891-1.75-8.891-1.75l-12.861-11.702-10.101-10.921 1.24-2.79a14.852 14.852 0 0 0 2-1.74 14.65 14.65 0 0 0 1.36-1.731ZM99.276 96.948s-9.75 14.472-9.7 19.452a46.125 46.125 0 0 0 3.95 17.002c2.19 4.341 5 3.341 6.27 8.771 1.271 5.431-3.75 3.511-3.75 3.511l-8-7.581-5.662-17.152.42-12.662 5.001-17.892 11.471 6.551Z" fill="#CFCFCE" style="mix-blend-mode:multiply"/><path d="M75.464 63.053a5.46 5.46 0 0 0-3.89 4.531c-.65 3.82-.37 4.87 1.61 7.63 1.98 2.761 4.55 3.681 4.26 6.162-.29 2.48-.49 5.07 1.65 6.28 2.14 1.21 2.08 2.86 3 4 .92 1.141 3.181 1.101 3.181 1.101l7.56-2.55 11.552-14.282s-.84-5.62-1.69-7.15c-.85-1.531-1.16-4.851-3.32-5.442-2.16-.59-4.17-2.84-5.581-3.82-1.41-.98-1.11-2.64-3.6-2.64s-2.74 1.23-3.79 1.42c-1.051.19-4.491-2-7.002-.24-2.51 1.76-3.09 1.08-3.94 5Z" fill="#000"/><path d="M88.925 141.012c1.3 2.51 1.42 4.201 2 6.191.58 1.99 2.31 2.25 3.87 2.41 1.32.246 2.668.29 4 .13 1.351-.26 3.081-2.07 3.081-2.07s1-4.371-.33-5.791-4.47-1.32-5.89-1.58-3.22-2.08-3.71-2.82c-.49-.74-2.241-10.662-3.781-14.342-1.54-3.681-2.44-4.441-2.19-5.681.25-1.24 3.83-12.111 4.88-15.602 1.05-3.49 1.17-4 3-4.26 1.83-.26 6.171-.62 6.171-.62l16.812 2 8.421-6.77-8.221-14.492-2.63-3.51s-2.37-2.261-2.25-2.771c.12-.51 9.891-1 11.181-2.32 1.29-1.32 3.21-2.7 2.83-3.85-.38-1.151-.91-4.001-6.051-5.392-5.14-1.39-18.202 1.36-20.362.87-2.16-.49-6.44-2.76-8.951-2.14a3.07 3.07 0 0 0-2.49 2.9s4.21-1.83 4.78-.26c.57 1.57-3.5 2.38-3.5 2.38a8.681 8.681 0 0 0 4.61 1.711c2.59.08 4-1.32 6.361-1l8.791 1s-5.891.21-7.001 4.33c-1.11 4.121-3.25 5.281-4.91 5.121-1.66-.16-3.41-3.54-3.41-3.54s-1-3.66-2-4.84c-2.401-2.771-6.402-5.501-9.102-4.001a8.55 8.55 0 0 1-5.94.84 12 12 0 0 1-.15 4.25 42.28 42.28 0 0 0-.66 4.23s3.21.42 4.28 2.321c1.07 1.9.14 3 .94 3.81a2.61 2.61 0 0 0 2.93.83c.84-.49.68-1 1.6-.51s3.28 1 3.67 1.89c.39.89 1.351 4.191 1.351 4.191s-1.72 3.68-4 4.54c-2.28.86-2.78 2.601-3.5 5.481a142.566 142.566 0 0 0-2.681 17.603c-.27 4.87-1.28 7.22 1 14.251 2.28 7.031 4.91 10.552 7.15 14.882Z" fill="#752C24"/><path d="M90.975 84.216a11.782 11.782 0 0 1 6.49 4.231 18.514 18.514 0 0 0 10.432 6.71c3.57.68 8.481-1.37 8.481-1.37s-1-4.6-6.141-10.72c-5.14-6.121-8.491-10.662-8.491-10.662l.64-2.74s3.291 5.09 6.271 6.85c2.98 1.76 7.381 2.73 7.571 1.36.19-1.37-1.76-3.66-1.76-3.66a58.576 58.576 0 0 1 6.111 5.881c3.07 3.42 4.92 6 9.831 8.071 4.91 2.07 11.431 5.5 11.431 5.5l-7.211 23.213-10.731-3.93a28.25 28.25 0 0 0-6.641-8.101c-4.58-3.891-7.631-3.44-11.201-4.391a13.994 13.994 0 0 1-6.001-3.52s-3.11-6-5.4-7.93a18.57 18.57 0 0 0-4.751-2.791l1.07-2Z" fill="#F05D77"/><path d="M123.899 112.99s-7.621 12.891-10.201 19.722c-2.58 6.831-1.16 9.781.85 11.792 2.01 2.01 11.451 4.81 20.002 9.111 8.551 4.3 12.842 6.37 18.183 11.271 5.34 4.901 7.77 7.731 9.261 8.611 1.49.88 2.25-1.17.94-3.43-1.31-2.261-6.061-8.921-6.061-8.921l-18.592-15.162s-10.641-6.301-11.102-8.251c-.46-1.95 4.721-6.331 6.181-9.061 1.46-2.731 1.26-13.662 1.26-13.662s-7.23-2.59-10.721-2.02Z" fill="#5B1F18"/><path d="M134.62 115.01c-.35-1.95 0-13.282 3.221-17.602 3.22-4.32 4-3.74 4-3.74s9.812 4.48 8.361 14.811c-1.45 10.331-7.151 27.403-5.81 30.244 1.34 2.84 9.431 3.49 15.001 10.871 5.571 7.381 6.001 11.411 9.101 13.312 3.101 1.9 7.451.53 7.901 3.73.45 3.2-.33 5.791 1.151 11.101 1.48 5.311-.741 9.521-3.091 9.581-2.35.06-1.45-2-2.43-5.75-.98-3.751-2.32-9.351-7.831-14.242-5.511-4.891-19.002-15.712-23.183-18.202-4.18-2.49-8.001-5.001-8.301-8.171-.3-3.17 1.91-25.943 1.91-25.943Z" fill="#752C24"/><path d="M107.144 146.007a3.64 3.64 0 0 0-7.26-.508 3.64 3.64 0 0 0 7.26.508ZM86.865 70.385a2.977 2.977 0 1 0-5.94-.415 2.977 2.977 0 0 0 5.94.415Z" fill="#F9E6F0"/><path d="M81.074 72.655a2.1 2.1 0 1 0 0-4.2 2.1 2.1 0 0 0 0 4.2Z" fill="#000"/><path d="M92.166 65.053a2.977 2.977 0 1 0-5.94-.416 2.977 2.977 0 0 0 5.94.416Z" fill="#F9E6F0"/><path d="M86.364 67.344a2.1 2.1 0 1 0 0-4.2 2.1 2.1 0 0 0 0 4.2Z" fill="#000"/><path d="m83.235 69.014 1.74-1.82-.76-.59-1.86 1.89.88.52Z" fill="#F9E6F0"/><path d="M94.066 71.245s-.56 4.45-2.15 5.53c-1.59 1.08-6 1.36-6 1.36l3.67 1.89s4.81 1.821 6.42.21c1.61-1.61 1.43-5.45 1.43-5.45s-2.8-1.91-3.37-3.54Z" fill="#5B1F18"/><path d="M211.901 80.489a1.88 1.88 0 0 1-2.422-.533c-3.829-5.299-11.203-11.217-19.731-15.832-9.068-4.91-18.444-7.798-25.725-7.936a1.867 1.867 0 0 1-1.815-1.157 1.87 1.87 0 0 1 1.885-2.575c17.204.32 40.15 13.867 48.413 25.308a1.88 1.88 0 0 1-.417 2.61l-.188.115ZM95.887 224.432a1.881 1.881 0 0 1-2.422-.533c-3.829-5.299-11.203-11.217-19.73-15.832-9.069-4.911-18.445-7.798-25.725-7.936a1.861 1.861 0 0 1-1.39-.528 1.862 1.862 0 0 1-.565-1.375 1.863 1.863 0 0 1 .616-1.353 1.88 1.88 0 0 1 1.408-.476c17.205.321 40.15 13.867 48.413 25.308a1.879 1.879 0 0 1-.417 2.609l-.188.116ZM182.446 42.615a1.85 1.85 0 0 1-1.34.182c-14.249-3.365-38.56-11.123-41.174-25.203a1.872 1.872 0 0 1 2.229-2.29 1.863 1.863 0 0 1 1.199.884c.129.221.211.467.241.721 2.319 12.436 27.604 19.701 38.367 22.243a1.872 1.872 0 0 1 .473 3.454l.005.009ZM66.431 186.557a1.85 1.85 0 0 1-1.34.183c-14.248-3.365-38.56-11.124-41.173-25.204a1.866 1.866 0 0 1 .764-2.016 1.875 1.875 0 0 1 2.156.044 1.87 1.87 0 0 1 .748 1.288c2.32 12.436 27.604 19.701 38.367 22.243a1.875 1.875 0 0 1 1.418 1.565 1.87 1.87 0 0 1-.944 1.889l.004.008Z" fill="#DBEFED"/><path d="M211.901 80.489a1.88 1.88 0 0 1-2.422-.533c-3.829-5.299-11.203-11.217-19.731-15.832-9.068-4.91-18.444-7.798-25.725-7.936a1.867 1.867 0 0 1-1.815-1.157 1.87 1.87 0 0 1 1.885-2.575c17.204.32 40.15 13.867 48.413 25.308a1.88 1.88 0 0 1-.417 2.61l-.188.115ZM95.887 224.432a1.881 1.881 0 0 1-2.422-.533c-3.829-5.299-11.203-11.217-19.73-15.832-9.069-4.911-18.445-7.798-25.725-7.936a1.861 1.861 0 0 1-1.39-.528 1.862 1.862 0 0 1-.565-1.375 1.863 1.863 0 0 1 .616-1.353 1.88 1.88 0 0 1 1.408-.476c17.205.321 40.15 13.867 48.413 25.308a1.879 1.879 0 0 1-.417 2.609l-.188.116ZM182.446 42.615a1.85 1.85 0 0 1-1.34.182c-14.249-3.365-38.56-11.123-41.174-25.203a1.872 1.872 0 0 1 2.229-2.29 1.863 1.863 0 0 1 1.199.884c.129.221.211.467.241.721 2.319 12.436 27.604 19.701 38.367 22.243a1.872 1.872 0 0 1 .473 3.454l.005.009ZM66.431 186.557a1.85 1.85 0 0 1-1.34.183c-14.248-3.365-38.56-11.124-41.173-25.204a1.866 1.866 0 0 1 .764-2.016 1.875 1.875 0 0 1 2.156.044 1.87 1.87 0 0 1 .748 1.288c2.32 12.436 27.604 19.701 38.367 22.243a1.875 1.875 0 0 1 1.418 1.565 1.87 1.87 0 0 1-.944 1.889l.004.008Z" fill="#fff"/></svg>
